X:1
T:Whip Jamboree
M:4/4
L:1/4
K:G
 E E G A| BA/2-G/2 A d/2c/2| B B/2B/2 E G/2G/2| F E D D/2D/2| E E G A|\
 BA/2-G/2 Ad/2-c/2| B/4 B3/4 B/2A/2 G F| E3 B,| E3/2 F/2 G A| BA/2-G/2 A d/2c/2|\
 B B E G| F/2E/2 F/2E/2 D B,/2B,/2| E3/2 F/2 G A| BA/2-G/2 Ad/2-c/2|\
 B/4 B3/4 B/2A/2 G F| E3 z|

